X: 328
T: 329. Sei Lob und Ehr dem h\"ochsten Gut
N: Derived from chor329.krn
C: Johann Sebastian Bach
%%abc-version 2.0
%%abcx-abcm2ps-target-version 5.9.1 (29 Sep 2008)
%%abc-creator hum2abc beta
%%abcx-conversion-date 2019/03/11 17:28:19
%%abc-edited-by Craig Stuart Sapp
%%humdrum-veritas 1250014211
%%humdrum-veritas-data 260305441
%%
%%barnumbers 0
L: 1/8
M: C
%%staves [1 2 3 4]
V: 1 clef=treble
V: 2 clef=treble
V: 3 clef=treble-8
V: 4 clef=bass
K: G
[V:1] d2 [I:setbarnb 1]| 
[V:2] B2 | 
[V:3] g2 | 
[V:4] G,2 | 
[V:1] d2d2de=f2 | 
[V:2] AGF2G2CD | 
[V:3] d2A2GB AG | 
[V:4] F,E, D,C, B,,G,, A,,B,, | 
[V:1] e2d2!fermata!c2dc | 
[V:2] E=FG2!fermata!C2A2 | 
[V:3] c2de/=f/!fermata!e2d2 | 
[V:4] C,2G,2!fermata!A,2F,2 | 
[V:1] BA GAB2^c2 | 
[V:2] D2EF GFE2 | 
[V:3] dcB2e2A2 | 
[V:4] G,3F, E,F, G,A, | 
[V:1] d2e2!fermata!d2 :|]  
[V:2] F2G2!fermata!F2 :|]  
[V:3] Ad2^c!fermata!d2 :|]  
[V:4] F,B,G,A,!fermata!D,2 :|]  
[V:1] d2 [I:setbarnb 5]| 
[V:2] BA | 
[V:3] d2 | 
[V:4] G,A, | 
[V:1] g2f2e2f2 | 
[V:2] GA AB ^cBA2 | 
[V:3] de fga2d2 | 
[V:4] B,^CD2A,B,=C2 | 
[V:1] gfe2!fermata!d2d2 | 
[V:2] Bd^c2!fermata!A2GA | 
[V:3] dB ef/g/!fermata!f2BA | 
[V:4] B,G,A,2!fermata!D,2G,F, | 
[V:1] g2d2e2Bc | 
[V:2] B=c BAG2G2 | 
[V:3] G2gfe2e2 | 
[V:4] E,2B,,2C,D,E,2 | 
[V:1] d2c2!fermata!B2B2 | 
[V:2] FE EF!fermata!^G2=G2 | 
[V:3] dBA2!fermata!B2BG | 
[V:4] F,^G,A,2!fermata!E,2=G,2 | 
[V:1] ABc2B2A2 | 
[V:2] AD GA CG2F | 
[V:3] d2cAB2cA | 
[V:4] F,G, E,F, G,E, C,D, | 
[V:1] E/F/G2F!fermata!G2 |]  
[V:2] GB, ED!fermata!D2 |]  
[V:3] e2A2!fermata!B2 |]  
[V:4] E,D, C,D,!fermata!G,,2 |]  



